packages/core/src/svgs/iron.svg

<svg width="24" height="24" viewBox="0 0 24 24" fill="none" xmlns="http://www.w3.org/2000/svg">
<g clip-path="url(#clip0_31_11927)">
<path d="M0 0H24V24H0V0Z" fill="#181B1E"/>
<path d="M20.5242 11.8285L17.8671 7.45707C17.8327 7.4043 17.7857 7.36096 17.7303 7.33101C17.6749 7.30107 17.6129 7.28547 17.5499 7.28565H12.2356C12.1071 7.28565 11.9871 7.35422 11.9228 7.45707L9.73707 11.0656C9.71742 11.0962 9.68856 11.1197 9.65467 11.1328C9.62078 11.1459 9.5836 11.1479 9.5485 11.1385C9.51484 11.1301 9.48488 11.1108 9.4632 11.0837C9.44153 11.0566 9.42934 11.0232 9.4285 10.9885V9.68136C9.4285 8.36136 8.20279 7.28565 6.81422 7.28565H4.65422C4.45707 7.28565 4.28564 7.4485 4.28564 7.63279V9.68136C4.28564 10.6285 4.9885 11.5028 5.90136 11.8585C5.96136 11.8842 5.99993 11.9399 5.99993 11.9999C5.99993 12.0642 5.95707 12.1199 5.90136 12.1456C4.98422 12.4971 4.28564 13.3714 4.28564 14.3185V16.3628C4.28564 16.5556 4.45707 16.7142 4.65422 16.7142H6.80993C8.20279 16.7142 9.42422 15.6385 9.42422 14.3142V13.0114C9.42477 12.9905 9.42942 12.97 9.43791 12.951C9.4464 12.932 9.45855 12.9148 9.47367 12.9005C9.4888 12.8861 9.5066 12.8749 9.52606 12.8675C9.54551 12.86 9.56625 12.8565 9.58707 12.8571C9.61589 12.8566 9.64434 12.8635 9.66981 12.877C9.69528 12.8905 9.71694 12.9101 9.73279 12.9342L11.9185 16.5385C11.9871 16.6456 12.1071 16.7142 12.2399 16.7142H17.5499C17.6785 16.7142 17.8028 16.6456 17.8671 16.5428L20.5242 12.1714C20.5551 12.1195 20.5714 12.0603 20.5714 11.9999C20.5718 11.9395 20.5555 11.8802 20.5242 11.8285ZM14.9999 13.7142C14.5453 13.7142 14.1092 13.5336 13.7877 13.2121C13.4663 12.8906 13.2856 12.4546 13.2856 11.9999C13.2856 11.5453 13.4663 11.1092 13.7877 10.7877C14.1092 10.4663 14.5453 10.2856 14.9999 10.2856C15.4546 10.2856 15.8906 10.4663 16.2121 10.7877C16.5336 11.1092 16.7142 11.5453 16.7142 11.9999C16.7142 12.4546 16.5336 12.8906 16.2121 13.2121C15.8906 13.5336 15.4546 13.7142 14.9999 13.7142Z" fill="#EE99D0"/>
</g>
<defs>
<clipPath id="clip0_31_11927">
<rect width="24" height="24" fill="white"/>
</clipPath>
</defs>
</svg>

<svg xmlns="http://www.w3.org/2000/svg" width="24" height="24" fill="none" viewBox="0 0 24 24"><g clip-path="url(#a)"><path fill="#181B1E" d="M0 0h24v24H0z"/><path fill="#EE99D0" d="m20.524 11.829-2.657-4.372a.38.38 0 0 0-.317-.171h-5.314a.37.37 0 0 0-.313.171l-2.186 3.609a.17.17 0 0 1-.274.018.16.16 0 0 1-.034-.095V9.68c0-1.32-1.226-2.395-2.615-2.395h-2.16c-.197 0-.368.163-.368.347V9.68c0 .948.703 1.822 1.615 2.178.06.025.099.08.099.14 0 .065-.043.12-.099.147-.917.351-1.615 1.225-1.615 2.172v2.045c0 .193.171.351.368.351H6.81c1.393 0 2.614-1.075 2.614-2.4v-1.303a.16.16 0 0 1 .163-.154.17.17 0 0 1 .146.077l2.185 3.605a.38.38 0 0 0 .322.175h5.31a.38.38 0 0 0 .317-.171l2.657-4.372a.34.34 0 0 0 0-.342M15 13.714a1.714 1.714 0 1 1 0-3.429 1.714 1.714 0 0 1 0 3.43"/></g><defs><clipPath id="a"><path fill="#fff" d="M0 0h24v24H0z"/></clipPath></defs></svg>
